symbols/web/1k/materialsymbolssharp/1k_wght500_24px.svg

<svg xmlns="http://www.w3.org/2000/svg" height="24" width="24"><path d="M12 15h1.5v-2.25L15.25 15h1.825l-2.325-3 2.325-3H15.25l-1.75 2.25V9H12Zm-3.5 0H10V9H7v1.5h1.5Zm-5.7 6.2V2.8h18.4v18.4Zm2.275-2.275h13.85V5.075H5.075Zm0 0V5.075v13.85Z"/></svg>

<svg xmlns="http://www.w3.org/2000/svg" height="24" width="24"><path d="M12 15H13.5V12.75L15.25 15H17.075L14.75 12L17.075 9H15.25L13.5 11.25V9H12ZM8.5 15H10V9H7V10.5H8.5ZM2.8 21.2V2.8H21.2V21.2ZM5.075 18.925H18.925V5.075H5.075ZM5.075 18.925V5.075V18.925Z"/></svg>
